src/pos-icons/home-floor-a.svg

<svg height="24" viewBox="0 0 24 24" width="24" xmlns="http://www.w3.org/2000/svg"><path d="m12 3-10 9h3v8h14v-8h3zm-1 5h2a2 2 0 0 1 2 2v8h-2v-3h-2v3h-2v-8c0-1.11.9-2 2-2m0 2v3h2v-3z"/></svg>

<?xml version="1.0" encoding="UTF-8"?><!DOCTYPE svg PUBLIC "-//W3C//DTD SVG 1.1//EN" "http://www.w3.org/Graphics/SVG/1.1/DTD/svg11.dtd"><svg xmlns="http://www.w3.org/2000/svg" xmlns:xlink="http://www.w3.org/1999/xlink" version="1.1" id="mdi-home-floor-a" width="24" height="24" viewBox="0 0 24 24"><path d="M12,3L2,12H5V20H19V12H22L12,3M11,8H13A2,2 0 0,1 15,10V18H13V15H11V18H9V10C9,8.89 9.9,8 11,8M11,10V13H13V10H11Z" /></svg>
